X:1
T: Handel's March Country Dance
N:
C:
S:
A:
O:
R:
M:4/4
K:G
I:speed 160
%W:         A
% voice 1 (1 lines, 20 notes)
K:G
M:4/4
L:1/16
G4 G4 F2 G2 A2 F2 |G4 G2 G2 G8 |B4 B4 A2 B2 c2 A2 |B4 B2 B2 B8 |
%W:
% voice 1 (1 lines, 21 notes)
G4 G2 A2 B4 A2 G2 |F2 D2 F2 A2 d4 d4 |A4 B2 G2 E4 ^C4 |D4 D2 D2 D8 |
%W:
% voice 1 (1 lines, 20 notes)
G4 G4 F2 G2 A2 F2 |G4 G2 G2 G8 |B4 B4 A2 B2 c2 A2 |B4 B2 B2 B8 |
%W:
% voice 1 (1 lines, 21 notes)
G4 G2 A2 B4 A2 G2 |F2 D2 F2 A2 d4 d4 |A4 B2 G2 E4 ^C4 |D4 D2 D2 D8 |
%W:         B
% voice 1 (1 lines, 24 notes)
d4 d2 c2 B4 A2 G2 |B2 d2 c2 e2 A4 B4 |c4 c2 B2 A2 F2 D2 F2 |G2 B2 A2 c2 B8 |
%W:
% voice 1 (1 lines, 24 notes)
G2 B2 A2 c2 B6 G2 |B2 d2 c2 e2 d6 c2 |B2 e2 d2 c2 B2 A2 G2 F2 |G4 G2 G2 G8 |
%W:
% voice 1 (1 lines, 24 notes)
d4 d2 c2 B4 A2 G2 |B2 d2 c2 e2 A4 B4 |c4 c2 B2 A2 F2 D2 F2 |G2 B2 A2 c2 B8 |
%W:
% voice 1 (1 lines, 24 notes)
G2 B2 A2 c2 B6 G2 |B2 d2 c2 e2 d6 c2 |B2 e2 d2 c2 B2 A2 G2 F2 |G4 G2 G2 G8 ||
